!!!!SEGMENT: pl-gd--ee-1638--002-026_marenzio-luca--motettorum-pro-festis-totius-anni-in-festo-s-crucis-super-omnia.krn
!!!cenid: 15xx:1029
!!!COM: Marenzio, Luca
!!!COM-rismID: pe30003955
!!!CDT: ~1553-1599/08/22
!!!CNT: Italian
!!!GTL: Motettorum pro festis totius anni
!!!OTL: In festo S. Crucis/Super omnia
!!!OMV: 026
!!!PDT: 1588
!!!AGN:
!!!SMS-siglum: PL-GD
!!!SMS-shelfmark: Ee 1638
!!!SMS-shelfwork: 002-026 G
!!!SMS-variant:
!!!SMS-altvar:
!!!NIFC-rismSourceID: 990039238
!!!NIFC-islandoraID: pl-gd:57883
!!!URL-pdf-islandora: https://repozytorium.nifc.pl/islandora/object/pl-gd%3A57883/datastream/PDF/view
!!!URL-scan: https://polish.musicsources.pl/pl/lokalizacje/galeria/klocki-introligatorskie/655 @EN{Scan on Polish Music Herritage in Open Access Website} @PL{Skany w portalu Dziedzictwo Muzyki Polskiej w otwartym dostępie}
!!!ONB-nifc: UWAGA: Cantus: s. 629 (lewa), Altus: s. 477 (lewa), Tenor: s. 325 (lewa), Bassus: s. 173 (lewa)
!!!AIN: 1 alto 1 bass 1 soprn 1 tenor
!!!key: F
**kern	**text	**kern	**text	**kern	**text	**kern	**text
*part4	*part4	*part3	*part3	*part2	*part2	*part1	*part1
*staff4	*staff4	*staff3	*staff3	*staff2	*staff2	*staff1	*staff1
*I"BASSVS	*	*I"TENOR	*	*I"ALTVS	*	*I"CANTVS	*
*I'B	*	*I'T	*	*I'A	*	*I'S	*
*ICvox	*	*ICvox	*	*ICvox	*	*ICvox	*
*Ibass	*	*Itenor	*	*Ialto	*	*Isoprn	*
*clefF3	*	*clefC3	*	*clefC2	*	*clefG2	*
*k[b-]	*	*k[b-]	*	*k[b-]	*	*k[b-]	*
*F:	*	*F:	*	*F:	*	*F:	*
*M2/1	*	*M2/1	*	*M2/1	*	*M2/1	*
*met(C|)	*	*met(C|)	*	*met(C|)	*	*met(C|)	*
=1-	=1-	=1-	=1-	=1-	=1-	=1-	=1-
!	!	!	!	!LO:TX:t=P:problem: dwa bemole kolejno: B- b-	!	!	!
0F	SV-	00r	.	1r	.	00r	.
.	.	.	.	0c	SV-	.	.
=2-	=2-	=2-	=2-	=2-	=2-	=2-	=2-
1A	-per	.	.	.	.	.	.
1.c	om-	.	.	1e	-per	.	.
=3-	=3-	=3-	=3-	=3-	=3-	=3-	=3-
.	.	00r	.	1.g	om-	00r	.
2c\	-ni-	.	.	.	.	.	.
2G\	-a	.	.	.	.	.	.
1c\	li-	.	.	2g\	-ni-	.	.
=4-	=4-	=4-	=4-	=4-	=4-	=4-	=4-
.	.	.	.	2c/	-a	.	.
2B-\	-gna	.	.	1g	li-	.	.
2G\	ce-	.	.	.	.	.	.
1B-\	-dro-	.	.	2f\	-gna	.	.
=5-	=5-	=5-	=5-	=5-	=5-	=5-	=5-
.	.	00r	.	2d/	ce-	1f	Tu
4A\	.	.	.	2.f\	-dro-	.	.
4G\	.	.	.	.	.	.	.
4A\	.	.	.	.	.	1cc	ſo-
4B-\	.	.	.	8e/	.	.	.
.	.	.	.	8d/	.	.	.
4c\	.	.	.	4e\	.	.	.
4A\	.	.	.	4f\	.	.	.
=6-	=6-	=6-	=6-	=6-	=6-	=6-	=6-
4B-\	.	.	.	4d/	.	1dd	-la
4A\	.	.	.	4e/	.	.	.
4G\	.	.	.	1f	.	.	.
!LO:SIC:v:t=custos G	!	!	!	!	!	!	!
4F/	.	.	.	.	.	.	.
!LO:LB:g=original	!	!	!	!	!	!	!
1G	.	.	.	.	.	1b-	ex-
.	.	.	.	2e/	.	.	.
=7-	=7-	=7-	=7-	=7-	=7-	=7-	=7-
1F	-rum	2r	.	4f\	-rum	2.a/	-cel-
.	.	.	.	8e/	.	.	.
.	.	.	.	8d/	.	.	.
.	.	2F/	Tu	4c/	.	.	.
.	.	.	.	4d/	.	4a/	-ſi-
2r	.	1c	ſo-	2.e/	.	2g/	-or
2C/	Tu	.	.	.	.	2cc\	ex-
!	!	!	!	!LO:SIC:v:t=custos g	!	!	!
.	.	.	.	4f\	.	.	.
!	!	!	!	!LO:LB:g=original	!	!	!
=8-	=8-	=8-	=8-	=8-	=8-	=8-	=8-
1G	ſo-	2d\	-la	1g	.	2.b-/	-cel-
.	.	2d\	ex-	.	.	.	.
.	.	.	.	.	.	4b-/	-ſi-
2A\	-la	2.c/	-cel-	2r	.	2.a/	-or
2F/	ex-	.	.	2c/	Tu	.	.
.	.	4d\	.	.	.	4b-/	.
=9-	=9-	=9-	=9-	=9-	=9-	=9-	=9-
2.E/	-cel-	4e\	.	1g	ſo-	1cc	.
.	.	4f\	.	.	.	.	.
.	.	4g\	.	.	.	.	.
4E/	-ſi-	4e\	.	.	.	.	.
2D/	-or	4f\	.	2a\	-la	2r	.
.	.	4g\	.	.	.	.	.
!	!	!	!	!	!	!LO:SIC:v:t=custos cc	!
*	*ij	*	*	*	*	*	*ij
2F/	Tu	4a\	.	2f\	ex-	1cc\	Tu
!	!	!LO:SIC:v:t=custos g	!	!	!	!	!
.	.	4f\	.	.	.	.	.
!	!	!LO:LB:g=original	!	!	!	!LO:LB:g=original	!
=10-	=10-	=10-	=10-	=10-	=10-	=10-	=10-
1c	so-	4g\	.	2.e/	-cel-	.	.
.	.	4e\	.	.	.	.	.
.	.	2.a\	.	.	.	2cc\	so-
.	.	.	.	4e/	-ſi-	.	.
2d\	-la	.	.	2f\	-or	2a/	-la
.	.	4g\	.	.	.	.	.
2B-\	ex-	1g\	.	4e/	.	2dd\	ex-
.	.	.	.	4d/	.	.	.
=11-	=11-	=11-	=11-	=11-	=11-	=11-	=11-
2.A\	-cel-	.	.	1a	.	2.cc\	-cel-
.	.	2f#X\	-ſi-	.	.	.	.
4A\	-si-	.	.	.	.	4cc\	-si-
!	!	!	!	!	!	!LO:N:acc=#	!
1G	-or	2.g\	-or	2r	.	1bn	-or
.	.	.	.	1g\	Su-	.	.
.	.	4f#\	.	.	.	.	.
*	*Xij	*	*	*	*	*	*Xij
=12-	=12-	=12-	=12-	=12-	=12-	=12-	=12-
1c	Su-	1e	.	.	.	1r	.
.	.	.	.	1e	-per	.	.
1A	-per	1r	.	.	.	0cc	Su-
.	.	.	.	1a\	om-	.	.
=13-	=13-	=13-	=13-	=13-	=13-	=13-	=13-
2.F/	om-	0c	Su-	.	.	.	.
.	.	.	.	2a\	-ni-	.	.
4F/	-ni-	.	.	.	.	.	.
1C	-a	.	.	0g	-a	1ee	-per
=14-	=14-	=14-	=14-	=14-	=14-	=14-	=14-
00r	.	1e	-per	.	.	1.gg	om-
.	.	1.g	om-	0b-	li-	.	.
.	.	.	.	.	.	2gg\	-ni-
=15-	=15-	=15-	=15-	=15-	=15-	=15-	=15-
.	.	.	.	.	.	2dd\	-a
.	.	2g\	-ni-	.	.	1gg	li-
.	.	1d	-a	1a	-gna	.	.
.	.	.	.	.	.	2ff\	-gna
=16-	=16-	=16-	=16-	=16-	=16-	=16-	=16-
00r	.	2g\	li-	0r	.	2dd\	ce-
.	.	2fny\	-gna	.	.	2.ff\	-dro-
.	.	2d\	ce-	.	.	.	.
.	.	.	.	.	.	8ee\	.
.	.	.	.	.	.	8dd\	.
.	.	1f\	-dro-	.	.	4cc\	.
.	.	.	.	.	.	4dd\	.
=17-	=17-	=17-	=17-	=17-	=17-	=17-	=17-
.	.	.	.	2r	.	4a/	.
.	.	.	.	.	.	4b-y/	.
.	.	4e\	.	2c/	tu	2.cc\	.
.	.	4d\	.	.	.	.	.
.	.	4e\	.	1g	ſo-	.	.
.	.	4f\	.	.	.	8b-/	.
!	!	!	!	!	!	!LO:SIC:v:t=custos b	!
.	.	.	.	.	.	8a/	.
!	!	!	!	!	!	!LO:LB:g=original	!
.	.	4g\	.	.	.	4b-/	.
!	!	!LO:SIC:v:t=custos f	!	!	!	!	!
.	.	4e\	.	.	.	4cc\	.
!	!	!LO:LB:g=original	!	!	!	!	!
=18-	=18-	=18-	=18-	=18-	=18-	=18-	=18-
0r	.	4f\	.	1a	-la	4dd\	.
.	.	4e\	.	.	.	4cc\	.
.	.	4d\	.	.	.	1cc	.
.	.	4c/	.	.	.	.	.
.	.	1d	.	1f	ex-	.	.
!	!	!	!	!	!	!LO:N:acc=#	!
.	.	.	.	.	.	2bn/	.
=19-	=19-	=19-	=19-	=19-	=19-	=19-	=19-
!LO:SIC:v:t=custos C	!	!	!	!	!	!	!
2r	.	1c	-rum	2.e/	-cel-	4cc\	-rum
.	.	.	.	.	.	8b-y/	.
.	.	.	.	.	.	8a/	.
!LO:LB:g=original	!	!	!	!	!	!	!
2C/	tu	.	.	.	.	4g/	.
!	!	!	!	!LO:SIC:v:t=custos d	!	!	!
.	.	.	.	4e/	-ſi-	4a/	.
!	!	!	!	!LO:LB:g=original	!	!	!
1G	ſo-	1r	.	2d/	-or	4b-/	.
.	.	.	.	.	.	4cc\	.
.	.	.	.	2g\	ex-	4dd\	.
.	.	.	.	.	.	4b-/	.
=20-	=20-	=20-	=20-	=20-	=20-	=20-	=20-
2A\	-la	1.c	tu	2e/	-cel-	0cc	.
2F/	tu	.	.	2f\	-ſi-	.	.
0c	ſo-	.	.	0e	-or	.	.
.	.	1g\	ſo-	.	.	.	.
=21-	=21-	=21-	=21-	=21-	=21-	=21-	=21-
.	.	.	.	.	.	1r	.
.	.	1a	-la	.	.	.	.
2d\	-la	.	.	1r	.	1f	tu
2B-\	ex-	2d\	ex-	.	.	.	.
=22-	=22-	=22-	=22-	=22-	=22-	=22-	=22-
2.A\	-cel-	4e\	-cel-	1c	tu	1cc	ſo-
.	.	4c/	.	.	.	.	.
.	.	1f	.	.	.	.	.
4A\	-ſi-	.	.	.	.	.	.
1G	-or	.	.	1g	ſo-	2dd\	-la
.	.	2e\	-ſi-	.	.	2b-/	ex-
=23-	=23-	=23-	=23-	=23-	=23-	=23-	=23-
2r	.	1f	-or	2d/	-la	2.a/	-cel-
2F/	tu	.	.	1f	ex-	.	.
.	.	.	.	.	.	4a/	-ſi-
1c	ſo-	1r	.	.	.	1g	-or
.	.	.	.	2.e/	-cel-	.	.
=24-	=24-	=24-	=24-	=24-	=24-	=24-	=24-
2A\	-la	0r	.	.	.	0r	.
.	.	.	.	4d/	.	.	.
2F/	ex-	.	.	1d	.	.	.
2.E/	-cel-	.	.	.	.	.	.
.	.	.	.	2c#X/	-ſi-	.	.
4E/	-ſi-	.	.	.	.	.	.
=25-	=25-	=25-	=25-	=25-	=25-	=25-	=25-
1D	-or	1r	.	1d	-or	2r	.
!	!	!	!	!	!	!LO:SIC:v:t=custos b	!
.	.	.	.	.	.	1f	in
1r	.	1d	in	1f	in	.	.
!	!	!	!	!	!	!LO:LB:g=original	!
.	.	.	.	.	.	2b-/	qua
=26-	=26-	=26-	=26-	=26-	=26-	=26-	=26-
0r	.	2e\	qua	2g\	qua	1cc	vi-
.	.	1f	vi-	1a	vi-	.	.
.	.	.	.	.	.	1cc	-ta
.	.	2e\	-ta	2g\	-ta	.	.
=27-	=27-	=27-	=27-	=27-	=27-	=27-	=27-
!	!	!LO:SIC:v:t=custos c	!	!	!	!	!
1r	.	1d	mun-	2a\	mun-	1ff	mun-
!	!	!	!	!LO:N:acc=#	!	!	!
.	.	.	.	2bn\	.	.	.
!	!	!LO:LB:g=original	!	!	!	!	!
2r	.	2.c/	-di	1cc	-di	1ee	-di
2c\	pe-	.	.	.	.	.	.
.	.	4d\	.	.	.	.	.
=28-	=28-	=28-	=28-	=28-	=28-	=28-	=28-
1B-	-pen-	0e	.	1r	.	2gg\	pe-
.	.	.	.	.	.	1gg	-pen-
!LO:SIC:v:t=custos G	!	!	!	!	!	!	!
1C	-dit	.	.	1g	pe-	.	.
.	.	.	.	.	.	2g/	-dit
!LO:LB:g=original	!	!	!	!	!	!	!
=29-	=29-	=29-	=29-	=29-	=29-	=29-	=29-
1G	in	1r	.	1g	-pen-	1b-	in
!	!	!	!	!LO:SIC:v:t=custos f	!	!	!
2A\	qua	1f	pe-	2cny/	-dit	2cc\	qua
!	!	!	!	!LO:LB:g=original	!	!	!
1B-\	vi-	.	.	2f\	in	1dd\	vi-
=30-	=30-	=30-	=30-	=30-	=30-	=30-	=30-
.	.	1f	-pen-	2d/	qua	.	.
2A\	-ta	.	.	1f	vi-	2cc\	-ta
1G	mun-	1B-	-dit	.	.	1b-	mun-
.	.	.	.	2e/	-ta	.	.
=31-	=31-	=31-	=31-	=31-	=31-	=31-	=31-
2F/	-di	1r	.	2f\	mṹ(n)-	2a/	-di
2B-\	pe-	.	.	2d/	-di	1dd	pe-
*	*	*	*ij	*	*	*	*
1B-	-pen-	1f	pe-	2b-y\	pe-	.	.
.	.	.	.	1b-\	-pen-	1dd\	-pen-
=32-	=32-	=32-	=32-	=32-	=32-	=32-	=32-
0BB-	-dit	1f	-pen-	.	.	.	.
.	.	.	.	1B-	-dit	1d	-dit
.	.	1F	-dit	.	.	.	.
.	.	.	.	1b-\	in	1dd\	in
*	*	*	*Xij	*	*	*	*
=33-	=33-	=33-	=33-	=33-	=33-	=33-	=33-
1F	in	2r	.	.	.	.	.
.	.	1c	in	2a\	qua	2cc\	qua
*	*	*	*	*lig	*	*lig	*
1F	qua	.	.	1a	Chri-	1cc	Chri-
.	.	2d\	qua	.	.	.	.
=34-	=34-	=34-	=34-	=34-	=34-	=34-	=34-
*	*	*	*	*col	*	*	*
!	!	!	!	!	!	!LO:SIC:v:t=custos a	!
1G	Chriſ-	4e-X\	Chri-	2.g\	.	1b-	.
.	.	4d\	.	.	.	.	.
.	.	2.d\	.	.	.	.	.
*	*	*	*	*Xlig	*	*Xlig	*
.	.	.	.	4f\	.	.	.
*	*	*	*	*Xcol	*	*	*
!	!	!	!	!	!	!LO:LB:g=original	!
1A	-tus	.	.	1e	.	1a	-ſtus
.	.	8c#X/	.	.	.	.	.
!	!	!LO:N:acc=#	!	!	!	!	!
.	.	8Bn/	.	.	.	.	.
.	.	2c#X/	.	.	.	.	.
=35-	=35-	=35-	=35-	=35-	=35-	=35-	=35-
2B-\	tri-	2d\	-ſtus	1d	-ſtus	1r	.
!	!	!LO:SIC:v:t=custos G	!	!	!	!	!
2G\	-um-	2B-y/	tri-	.	.	.	.
!	!	!LO:LB:g=original	!	!	!	!	!
2.B-\	-pha-	2G/	-um-	0d	in	0b-	in
.	.	2.B-/	-pha-	.	.	.	.
4c\	.	.	.	.	.	.	.
=36-	=36-	=36-	=36-	=36-	=36-	=36-	=36-
4d\	.	.	.	.	.	.	.
4c\	.	4cny/	.	.	.	.	.
4B-\	.	4d\	.	.	.	.	.
4A\	.	4c/	.	.	.	.	.
4G\	.	4B-/	.	1d	qua	0b-	qua
4A\	.	4A/	.	.	.	.	.
4B-\	.	2.G/	.	.	.	.	.
!LO:SIC:v:t=custos G	!	!	!	!	!	!	!
4A\	.	.	.	.	.	.	.
!LO:LB:g=original	!	!	!	!	!	!	!
=37-	=37-	=37-	=37-	=37-	=37-	=37-	=37-
4G\	.	.	.	2.g\	Chri-	.	.
4F/	.	4A/	.	.	.	.	.
4E-X/	.	2.B-/	.	.	.	.	.
4D/	.	.	.	4f\	.	.	.
1C	.	.	.	1e-X	.	1cc	Chriſ-
.	.	8A/	.	.	.	.	.
.	.	8G/	.	.	.	.	.
.	.	2A/	.	.	.	.	.
=38-	=38-	=38-	=38-	=38-	=38-	=38-	=38-
0BB-	-uit	1B-	-uit	2d/	-ſtus	1dd	-tus
.	.	.	.	2f\	tri-	.	.
!	!	!	!	!LO:SIC:v:t=custos f	!	!	!
.	.	2r	.	2d/	-um-	2ff\	tri-
!	!	!	!	!LO:LB:g=original	!	!	!
.	.	2B-/	tri-	2.f\	-pha-	2dd\	-um-
=39-	=39-	=39-	=39-	=39-	=39-	=39-	=39-
0r	.	2d\	-um-	.	.	2.ff\	-pha-
.	.	.	.	4g\	.	.	.
.	.	2.f\	-pha-	4a\	.	.	.
.	.	.	.	4g\	.	4gg\	.
.	.	.	.	4f\	.	4aa\	.
.	.	4g\	.	4eny/	.	4gg\	.
.	.	4a\	.	2.d/	.	4ff\	.
.	.	4g\	.	.	.	4ee\	.
=40-	=40-	=40-	=40-	=40-	=40-	=40-	=40-
1B-	in	4f\	.	.	.	4dd\	.
.	.	4eny\	.	4c/	.	4ee\	.
.	.	4d\	.	4B-/	.	4ff\	.
!	!	!LO:SIC:v:t=custos f	!	!	!	!	!
.	.	4e\	.	4c/	.	4ee\	.
!	!	!LO:LB:g=original	!	!	!	!	!
1B-	qua	2f\	.	4d/	.	4dd\	.
.	.	.	.	4e/	.	4cc\	.
.	.	2d\	-uit	2.f\	.	4b-/	.
.	.	.	.	.	.	4a/	.
=41-	=41-	=41-	=41-	=41-	=41-	=41-	=41-
1c	Chriſ-	1r	.	.	.	1g	.
.	.	.	.	8e/	.	.	.
.	.	.	.	8d/	.	.	.
.	.	.	.	2e/	.	.	.
1d	-tus	2r	.	1f	-uit	2f/	-uit
!	!	!	!	!	!	!LO:SIC:v:t=custos b	!
.	.	2d\	tri-	.	.	2a/	tri-
!	!	!	!	!	!	!LO:LB:g=original	!
=42-	=42-	=42-	=42-	=42-	=42-	=42-	=42-
2B-\	tri-	2G/	-um-	2r	.	2b-/	-um-
2G\	-um-	2.B-/	-pha-	2d/	tri-	2.dd\	-pha-
2.B-\	-pha-	.	.	2G/	-pha-	.	.
.	.	4c/	.	.	.	4cc\	.
.	.	4d\	.	2.B-/	.	4b-/	.
4c\	.	4c/	.	.	.	4a/	.
=43-	=43-	=43-	=43-	=43-	=43-	=43-	=43-
4d\	.	4B-/	.	.	.	4g/	.
4c\	.	4A/	.	4c/	.	4a/	.
4B-\	.	4G/	.	4d/	.	4b-/	.
4A\	.	4A/	.	4c/	.	4cc\	.
4G\	.	4B-/	.	4B-/	.	2.dd\	.
4A\	.	4c/	.	4A/	.	.	.
4B-\	.	4d\	.	2.G/	.	.	.
!LO:SIC:v:t=custos G	!	!	!	!	!	!	!
4A\	.	4c/	.	.	.	8ee\	.
.	.	.	.	.	.	8ff\	.
!LO:LB:g=original	!	!	!	!	!	!	!
=44-	=44-	=44-	=44-	=44-	=44-	=44-	=44-
*	*	*lig	*	*	*	*	*
4G\	.	1B-	.	.	.	2.gg\	.
!	!	!	!	!LO:SIC:v:t=custos B-	!	!	!
4F/	.	.	.	4A/	.	.	.
!	!	!	!	!LO:LB:g=original	!	!	!
4E-X/	.	.	.	2.B-/	.	.	.
4D/	.	.	.	.	.	4ff\	.
1C	.	1c	.	.	.	1ee-X	.
.	.	.	.	8A/	.	.	.
.	.	.	.	8G/	.	.	.
.	.	.	.	2A/	.	.	.
*	*	*Xlig	*	*	*	*	*
=45-	=45-	=45-	=45-	=45-	=45-	=45-	=45-
1BB-	-uit	2F/	-uit	1B-	-uit	0.dd	-uit
.	.	2.f\	et	.	.	.	.
0B-	et	.	.	2r	.	.	.
.	.	4e\	.	.	.	.	.
.	.	4d\	.	1f\	et	.	.
.	.	4c/	.	.	.	.	.
=46-	=46-	=46-	=46-	=46-	=46-	=46-	=46-
.	.	1d	.	.	.	.	.
.	.	.	.	1f	mors	.	.
1B-	mors	1d	mors	.	.	1r	.
.	.	.	.	1g\	mor-	.	.
=47-	=47-	=47-	=47-	=47-	=47-	=47-	=47-
!	!	!LO:SIC:v:t=custos d	!	!	!	!	!
0A	mor-	0c	mor-	.	.	0r	.
.	.	.	.	4f\	.	.	.
.	.	.	.	4e\	.	.	.
.	.	.	.	2f\	.	.	.
.	.	.	.	2e/	-tem	.	.
!	!	!LO:LB:g=original	!	!	!	!	!
=48-	=48-	=48-	=48-	=48-	=48-	=48-	=48-
1G	-tem	2d\	-te	2r	.	0b-	et
.	.	1e-X	ſu-	1g	ſu-	.	.
1r	.	.	.	.	.	.	.
.	.	2d\	-pe-	2f#X\	-pe-	.	.
=49-	=49-	=49-	=49-	=49-	=49-	=49-	=49-
0r	.	1e-X	-ra-	1g	-ra-	1b-	mors
.	.	2c/	-uit	2e/	-uit	0a	mor-
.	.	2.d\	in	2.fny\	in	.	.
=50-	=50-	=50-	=50-	=50-	=50-	=50-	=50-
1r	.	.	.	.	.	.	.
.	.	4c/	ę-	4e/	ę-	.	.
.	.	2d\	-ter-	2f#X\	-ter-	.	.
0E-X	et	1G	-num	1g	-num	2g/	-te
.	.	.	.	.	.	1cc\	ſu-
=51-	=51-	=51-	=51-	=51-	=51-	=51-	=51-
.	.	1g	et	00r	.	.	.
.	.	.	.	.	.	2b-/	-pe-
!	!	!	!	!	!	!LO:SIC:v:t=custos a	!
1E-	mors	1g	mors	.	.	1cc	-ra-
!	!	!	!	!	!	!LO:LB:g=original	!
=52-	=52-	=52-	=52-	=52-	=52-	=52-	=52-
0D	mor-	0f	mor-	.	.	2a/	-uit
.	.	.	.	.	.	2.b-/	in
.	.	.	.	.	.	4a/	ę-
!	!	!	!	!	!	!LO:N:acc=#	!
.	.	.	.	.	.	2bn/	-ter-
=53-	=53-	=53-	=53-	=53-	=53-	=53-	=53-
2C/	-te(m)	2eny\	-te	0g	et	1cc	-num
1c	ſu-	1e	ſu-	.	.	.	.
.	.	.	.	.	.	1r	.
!LO:N:acc=#	!	!	!	!	!	!	!
2Bn\	-pe-	2d\	-pe-	.	.	.	.
=54-	=54-	=54-	=54-	=54-	=54-	=54-	=54-
1c	-ra-	1e	-ra-	1g	mors	0r	.
!	!	!	!	!LO:SIC:v:t=custos e	!	!	!
2A\	-uit	2c/	-uit	0fny	mor-	.	.
2.B-y\	in	2.d\	in	.	.	.	.
!	!	!	!	!LO:LB:g=original	!	!	!
=55-	=55-	=55-	=55-	=55-	=55-	=55-	=55-
.	.	.	.	.	.	1r	.
4A\	ę-	4c/	æ-	.	.	.	.
!LO:SIC:v:t=custos c	!	!	!	!	!	!	!
2B-\	-ter-	2d\	-ter-	.	.	.	.
!LO:LB:g=original	!	!	!	!	!	!	!
2.c\	-num	2g\	-num	2e/	-te	0gg	et
.	.	1e\	in	1cc\	ſu-	.	.
8B-\	.	.	.	.	.	.	.
8A\	.	.	.	.	.	.	.
=56-	=56-	=56-	=56-	=56-	=56-	=56-	=56-
1G	.	.	.	.	.	.	.
!	!	!	!	!LO:N:acc=#	!	!	!
.	.	2d\	ę-	2bn\	-pe-	.	.
1r	.	4c/	-ter-	1cc	-ra-	1gg	mors
!	!	!LO:SIC:v:t=custos e	!	!	!	!	!
.	.	4d\	.	.	.	.	.
!	!	!LO:LB:g=original	!	!	!	!	!
.	.	4e\	.	.	.	.	.
.	.	4c/	.	.	.	.	.
=57-	=57-	=57-	=57-	=57-	=57-	=57-	=57-
0r	.	4f\	.	2a\	-uit	0ff	mor-
.	.	4e\	.	.	.	.	.
.	.	4d\	.	2.b-y\	in	.	.
.	.	4c\	.	.	.	.	.
.	.	1d	.	.	.	.	.
.	.	.	.	4a\	æ-	.	.
!	!	!	!	!LO:N:acc=#	!	!	!
.	.	.	.	2bn\	-ter-	.	.
=58-	=58-	=58-	=58-	=58-	=58-	=58-	=58-
*	*ij	*	*	*	*	*	*
0c	et	1g	-num	1cc	-num	1eeny	-te
*	*	*	*	*	*	*	*ij
.	.	1r	.	0g	et	1ee	et
=59-	=59-	=59-	=59-	=59-	=59-	=59-	=59-
1c	mors	0r	.	.	.	1ee	mors
0B-	mor-	.	.	1g	mors	0dd	mor-
=60-	=60-	=60-	=60-	=60-	=60-	=60-	=60-
.	.	1r	.	3.f\	mor-	.	.
.	.	.	.	6e/	.	.	.
.	.	.	.	3d/	.	.	.
2A\	-te(m)	0c	et	2e/	-te	0cc	-te
1F\	su-	.	.	1a\	ſu-	.	.
=61-	=61-	=61-	=61-	=61-	=61-	=61-	=61-
2Eny/	-pe-	.	.	2g\	-pe-	.	.
1F	-ra-	1c	mors	1a	-ra-	2r	.
.	.	.	.	.	.	1ff\	et
=62-	=62-	=62-	=62-	=62-	=62-	=62-	=62-
2D/	-vit	0.B-	mor-	2f\	-uit	.	.
2.E-X/	in	.	.	2.g\	in	2ee-X\	mors
.	.	.	.	.	.	1ee-	mor-
4D/	ę-	.	.	4f\	ę-	.	.
2E-X/	-ter-	.	.	2g\	-ter-	.	.
=63-	=63-	=63-	=63-	=63-	=63-	=63-	=63-
2BB-/	-num	.	.	2f\	-num	2dd\	-tem
*	*Xij	*	*	*	*	*	*Xij
2.D/	in	.	.	2.d/	in	2.ff\	ſu-
.	.	1A	-te	.	.	.	.
!	!	!	!	!LO:SIC:v:t=custos f	!	!LO:SIC:v:t=custos dd	!
4C/	ę-	.	.	4e/	ę-	4eeny\	-pe-
!LO:SIC:v:t=custos AA	!	!	!	!LO:LB:g=original	!	!LO:LB:g=original	!
2D/	-ter-	.	.	2f\	-ter-	2dd\	-ra-
!LO:LB:g=original	!	!	!	!	!	!	!
=64-	=64-	=64-	=64-	=64-	=64-	=64-	=64-
2AA/	-num	1.c	ſu-	2e/	-num	1cc	-uit
2.F/	in	.	.	2.a\	in	.	.
.	.	.	.	.	.	2r	.
4Eny/	æ-	.	.	4g\	ę-	.	.
!	!	!LO:N:acc=#	!	!	!	!	!
2G\	-ter-	2Bn/	-pe-	2d/	-ter-	2.gg\	in
=65-	=65-	=65-	=65-	=65-	=65-	=65-	=65-
2C/	-num	1c	-ra-	1e	-num	.	.
.	.	.	.	.	.	4ee\	ę-
2.c\	in	.	.	.	.	2gg\	-ter-
.	.	0.A	-uit	2r	.	2cc\	-num
4A\	ę-	.	.	.	.	.	.
*	*	*	*	*	*	*	*ij
2c\	-ter-	.	.	2.cc\	in	2.a/	in
=66-	=66-	=66-	=66-	=66-	=66-	=66-	=66-
2F/	-num	.	.	.	.	.	.
.	.	.	.	4a\	ę-	4f/	ę-
2.F/	in	.	.	2cc\	-ter-	2a/	-ter-
.	.	.	.	0f	-num	2a/	-num
4D/	ę-	.	.	.	.	.	.
2F/	-ter-	.	.	.	.	2.ff\	in
=67-	=67-	=67-	=67-	=67-	=67-	=67-	=67-
4BB-/	-num	1.B-y	in	.	.	.	.
4C/	.	.	.	.	.	4ee\	ę-
4D/	.	.	.	.	.	2dd\	-ter-
4E/	.	.	.	.	.	.	.
*	*	*	*	*	*ij	*	*
1F	.	.	.	2.f\	in	1cc	-num
.	.	2A/	ę-	.	.	.	.
.	.	.	.	4e/	ae-	.	.
=68-	=68-	=68-	=68-	=68-	=68-	=68-	=68-
2r	.	1B-	-ter-	4d/	.	2r	.
.	.	.	.	4c/	.	.	.
1BB-	in	.	.	1B-	.	1dd	in
!	!	!LO:N:vis=00	!	!	!	!	!
.	.	1%7F	-num.	.	.	.	.
2AA/	ę-	.	.	2c/	.	2cc\	ę-
=69-	=69-	=69-	=69-	=69-	=69-	=69-	=69-
0BB-	-ter-	.	.	0d	-ter-	0b-ny	-ter-
=70-	=70-	=70-	=70-	=70-	=70-	=70-	=70-
00F	-num.	.	.	00c	-num	00a	-num
=71-	=71-	=71-	=71-	=71-	=71-	=71-	=71-
=72-	=72-	=72-	=72-	=72-	=72-	=72-	=72-
0ryy	.	0ryy	.	2ryy	.	0ryy	.
.	.	.	.	1ryy	.	.	.
.	.	.	.	2ryy	.	.	.
=73-	=73-	=73-	=73-	=73-	=73-	=73-	=73-
0ryy	.	0ryy	.	0ryy	.	0ryy	.
=74-	=74-	=74-	=74-	=74-	=74-	=74-	=74-
0ryy	.	0ryy	.	0ryy	.	0ryy	.
==	==	==	==	==	==	==	==
*-	*-	*-	*-	*-	*-	*-	*-
!!!system-decoration: [(s1,s2,s3,s4)]
!!!ENC: Andrzej Gręziak
!!!END: 2022-07-03
!!!ENC: Natalia Wrzos
!!!END: 2022-07-11
